src/assets/icons/visa.svg

<?xml version="1.0" encoding="UTF-8" standalone="no"?>
<svg
   xmlns:dc="http://purl.org/dc/elements/1.1/"
   xmlns:cc="http://creativecommons.org/ns#"
   xmlns:rdf="http://www.w3.org/1999/02/22-rdf-syntax-ns#"
   xmlns:svg="http://www.w3.org/2000/svg"
   xmlns="http://www.w3.org/2000/svg"
   xmlns:sodipodi="http://sodipodi.sourceforge.net/DTD/sodipodi-0.dtd"
   xmlns:inkscape="http://www.inkscape.org/namespaces/inkscape"
   width="750"
   height="471"
   viewBox="0 0 750 471"
   version="1.1"
   id="svg14"
   sodipodi:docname="visa.svg"
   inkscape:version="0.92.2 5c3e80d, 2017-08-06">
  <metadata
     id="metadata18">
    <rdf:RDF>
      <cc:Work
         rdf:about="">
        <dc:format>image/svg+xml</dc:format>
        <dc:type
           rdf:resource="http://purl.org/dc/dcmitype/StillImage" />
      </cc:Work>
    </rdf:RDF>
  </metadata>
  <sodipodi:namedview
     pagecolor="#ffffff"
     bordercolor="#666666"
     borderopacity="1"
     objecttolerance="10"
     gridtolerance="10"
     guidetolerance="10"
     inkscape:pageopacity="0"
     inkscape:pageshadow="2"
     inkscape:window-width="1515"
     inkscape:window-height="928"
     id="namedview16"
     showgrid="false"
     inkscape:zoom="0.384"
     inkscape:cx="83.333333"
     inkscape:cy="235.5"
     inkscape:window-x="2301"
     inkscape:window-y="293"
     inkscape:window-maximized="0"
     inkscape:current-layer="Page-1" />
  <!-- Generator: Sketch 48.2 (47327) - http://www.bohemiancoding.com/sketch -->
  <desc
     id="desc2">Created with Sketch.</desc>
  <defs
     id="defs4" />
  <g
     id="Page-1"
     stroke="none"
     stroke-width="1"
     fill="none"
     fill-rule="evenodd">
    <g
       id="visa"
       fill-rule="nonzero">
      <rect
         id="Rectangle-1"
         fill="#0E4595"
         x="0"
         y="0"
         width="750"
         height="471"
         rx="40" />
      <polygon
         id="Shape"
         fill="#FFFFFF"
         points="278.1975 334.2275 311.5585 138.4655 364.9175 138.4655 331.5335 334.2275" />
      <path
         d="M524.3075,142.6875 C513.7355,138.7215 497.1715,134.4655 476.4845,134.4655 C423.7605,134.4655 386.6205,161.0165 386.3045,199.0695 C386.0075,227.1985 412.8185,242.8905 433.0585,252.2545 C453.8275,261.8495 460.8105,267.9695 460.7115,276.5375 C460.5795,289.6595 444.1255,295.6545 428.7885,295.6545 C407.4315,295.6545 396.0855,292.6875 378.5625,285.3785 L371.6865,282.2665 L364.1975,326.0905 C376.6605,331.5545 399.7065,336.2895 423.6355,336.5345 C479.7245,336.5345 516.1365,310.2875 516.5505,269.6525 C516.7515,247.3835 502.5355,230.4355 471.7515,216.4645 C453.1005,207.4085 441.6785,201.3655 441.7995,192.1955 C441.7995,184.0585 451.4675,175.3575 472.3565,175.3575 C489.8055,175.0865 502.4445,178.8915 512.2925,182.8575 L517.0745,185.1165 L524.3075,142.6875"
         id="path13"
         fill="#FFFFFF" />
      <path
         d="M661.6145,138.4655 L620.3835,138.4655 C607.6105,138.4655 598.0525,141.9515 592.4425,154.6995 L513.1975,334.1025 L569.2285,334.1025 C569.2285,334.1025 578.3905,309.9805 580.4625,304.6845 C586.5855,304.6845 641.0165,304.7685 648.7985,304.7685 C650.3945,311.6215 655.2905,334.1025 655.2905,334.1025 L704.8025,334.1025 L661.6145,138.4655 Z M596.1975,264.8725 C600.6105,253.5935 617.4565,210.1495 617.4565,210.1495 C617.1415,210.6705 621.8365,198.8155 624.5315,191.4655 L628.1385,208.3435 C628.1385,208.3435 638.3555,255.0725 640.4905,264.8715 L596.1975,264.8715 L596.1975,264.8725 Z"
         id="Path"
         fill="#FFFFFF" />
      <path
         d="M 45.878906 138.46484 L 45.197266 142.53906 C 66.288263 147.64458 85.126465 155.03257 101.61914 164.22461 L 148.96484 333.91602 L 205.41992 333.84961 L 289.42383 138.46484 L 232.90234 138.46484 L 180.66211 271.96094 L 175.0957 244.83203 C 174.83824 244.00408 174.55942 243.17304 174.27344 242.3418 L 156.10742 154.99219 C 152.87742 142.59619 143.50892 138.89684 131.91992 138.46484 L 45.878906 138.46484 z "
         id="path16"
         style="fill:#ffffff;fill-opacity:1" />
    </g>
  </g>
</svg>

<?xml version="1.0" encoding="UTF-8"?>
<svg version="1.1" viewBox="0 0 750 471" xmlns="http://www.w3.org/2000/svg">
    <g fill="none" fill-rule="evenodd">
        <g fill-rule="nonzero">
            <rect width="750" height="471" rx="40" fill="#0E4595"/>
            <polygon points="278.2 334.23 311.56 138.47 364.92 138.47 331.53 334.23" fill="#fff"/>
            <path d="m524.31 142.69c-10.572-3.966-27.136-8.222-47.823-8.222-52.724 0-89.864 26.551-90.18 64.604-0.297 28.129 26.514 43.821 46.754 53.185 20.769 9.595 27.752 15.715 27.653 24.283-0.132 13.122-16.586 19.117-31.923 19.117-21.357 0-32.703-2.967-50.226-10.276l-6.876-3.112-7.489 43.824c12.463 5.464 35.509 10.199 59.438 10.444 56.089 0 92.501-26.247 92.915-66.882 0.201-22.269-14.015-39.217-44.799-53.188-18.651-9.056-30.073-15.099-29.952-24.269 0-8.137 9.668-16.838 30.557-16.838 17.449-0.271 30.088 3.534 39.936 7.5l4.782 2.259 7.233-42.429"
                  fill="#fff"/>
            <path d="m661.61 138.47h-41.231c-12.773 0-22.331 3.486-27.941 16.234l-79.245 179.4h56.031s9.162-24.122 11.234-29.418c6.123 0 60.554 0.084 68.336 0.084 1.596 6.853 6.492 29.334 6.492 29.334h49.512l-43.188-195.64zm-65.417 126.41c4.413-11.279 21.259-54.723 21.259-54.723-0.315 0.521 4.38-11.334 7.075-18.684l3.607 16.878s10.217 46.729 12.352 56.528h-44.293v1e-3z"
                  fill="#fff"/>
            <path d="m45.879 138.46-0.68164 4.0742c21.091 5.1055 39.929 12.494 56.422 21.686l47.346 169.69 56.455-0.06641 84.004-195.38h-56.521l-52.24 133.5-5.5664-27.129c-0.25746-0.82795-0.53628-1.659-0.82226-2.4902l-18.166-87.35c-3.23-12.396-12.598-16.095-24.188-16.527h-86.041z"
                  fill="#fff"/>
        </g>
    </g>
</svg>
